X: 10687
T: Down The Meadow
R: reel
M: 4/4
K: Gmajor
G2dG BGdB|GBdB cAFA|G2dG BGdB|AcBG AGEF|
G2dG BGdB|GBdB cAFA|~G3A BGdB|AcBG AEEf||
gddg edBd|gabg agef|gddg edBd|gabg a2gf|
gddg edBd|~g3b agef|gbaf gedB|AcBG AGEF||

